src/parts/graphicShirt/Pizza.svg

<svg>
  <g
    id="Clothing/Graphic-Shirt"
    transform="translate(0.000000, 170.000000)"
  >
    <defs>
      <path
        id="react-path-1153"
        d="M165.624032,29.2681342 C202.760022,32.1373245 232,63.1798426 232,101.051724 L232,110 L32,110 L32,101.051724 C32,62.8348009 61.7752018,31.5722494 99.3929298,29.1967444 C99.1342224,30.2735458 99,31.3767131 99,32.5 C99,44.3741221 113.998461,54 132.5,54 C151.001539,54 166,44.3741221 166,32.5 C166,31.4015235 165.871641,30.3222877 165.624025,29.2681336 Z"
      />
    </defs>
    <mask
      id="react-mask-1154"
      fill="white"
    >
      <use href="#react-path-1153" />
    </mask>
    <use
      id="Clothes"
      fill="#E6E6E6"
      fill-rule="evenodd"
      href="#react-path-1153"
    />
    <g
      id="Color/Palette/"
      mask="url(#react-mask-1154)"
      fill-rule="evenodd"
      fill="var(--avataaar-shirt-color)"
    >
      <rect
        id="Color"
        x="0"
        y="0"
        width="264"
        height="110"
      />
    </g>
    <g
      id="Clothing/Graphic/Pizza"
      stroke-width="1"
      fill-rule="evenodd"
    >
      <g
        id="Group-2"
        transform="translate(77.000000, 58.000000)"
      >
        <g transform="translate(35.000000, 1.000000)">
          <path
            id="Fill-29"
            d="M30.9332298,24.3911229 C26.8510636,25.7713262 22.3826909,27.7147062 20.0279438,31.464875 C18.1805823,34.4072634 18.056518,31.0097105 15.4771364,32.0578917 C12.9702973,33.0766532 13.6557418,37.2811459 12.7452506,39.3594362 C12.0367243,38.1679392 11.7020395,36.8427927 10.8096839,35.755105 C11.5033719,35.309607 12.1459503,34.7115469 12.6240715,34.0306915 C12.7802853,33.7116981 7.83173048,34.3791045 7.54774295,34.4602188 C6.13687312,34.8620076 4.80843799,35.231855 3.46021853,35.8900153 C3.8167486,35.3734898 4.16627171,34.8531817 4.51043656,34.3282505 C4.82039102,33.8562748 5.1253994,33.3800962 5.42463735,32.9009757 C5.63196061,32.2209608 6.00126805,32.2188594 6.53255966,32.8950918 C7.28147888,32.931236 7.71055147,33.2519105 8.49450544,33.0724504 C11.4098085,32.4054642 12.3380232,26.8489271 8.74469474,27.0851251 C10.3237313,24.2158656 11.7251212,21.3024766 12.9975007,18.2831768 C13.4999402,22.5742474 19.0774717,21.0961186 20.7166857,18.8076877 C22.8571026,15.8190684 20.1132637,10.1456931 16.2334747,10.6962614 C16.8142272,9.32068116 17.4036352,7.93375334 17.8825808,6.5182464 C18.9752527,8.1287638 20.8844403,8.90880562 22.421023,9.97463863 C24.031797,11.0917459 25.3940304,12.414791 26.5839752,13.9807586 C28.9704596,17.1210994 30.3767956,20.9881063 32.7987269,24.0334636 C32.1610946,24.0675064 31.539537,24.1868662 30.9332298,24.3911229 M39.9388082,20.0029673 C39.306534,14.2455357 34.7895249,8.40194655 30.4996233,4.82661475 C27.9499181,2.7020935 20.2587609,-2.55814545 17.1930146,1.48706068 C19.664819,2.55835735 22.3921709,2.81640998 24.8425422,3.97596569 C28.1630118,5.5482375 30.7646508,8.13506801 33.0114085,11.0312255 C36.1484608,15.075591 40.9816071,23.3139423 33.485408,25.4170292 C34.0030979,25.0791231 34.3035723,24.7080149 34.7132728,24.1086939 C33.706333,23.8762784 34.1131482,22.231298 33.7590912,21.1570594 C33.3473298,19.9063026 32.549362,18.6904293 31.874634,17.5745828 C30.8042195,15.803518 29.6278764,14.0408588 28.3707472,12.4038637 C26.692789,10.2179814 24.685092,8.49735037 22.3938196,7.00829423 C21.4874501,6.41948033 20.6190006,5.89749114 19.5774382,5.59320758 C18.2279822,5.19898385 18.6698322,5.67936522 18.3005247,4.44668058 C18.0692954,3.67420382 18.277443,2.68402141 18.0548693,1.85480669 C16.0817949,3.51323614 15.4400408,5.90967929 14.5555165,8.23635577 C13.5353871,10.9202712 12.4328231,13.5714048 11.3591111,16.2330453 C8.72367389,22.767997 5.32530354,28.6283975 1.46777192,34.479972 C0.796341323,35.4991538 -0.697375374,37.4299255 0.377573066,38.6537842 C1.33876162,39.7486166 2.7084141,38.9597489 3.76399039,38.5150914 C5.20041497,37.9107271 7.14917119,36.3506434 8.69894348,37.1680903 C10.6971605,38.2221554 9.75287108,42.1522045 12.9130052,41.9954397 C16.0265636,41.8407762 15.4404529,36.7154475 16.4395615,34.6775042 C18.7514425,36.3628316 20.615291,35.3171721 22.0187417,33.0665665 C23.6451783,30.4578814 25.7942508,29.4101204 28.5323192,28.1291035 C29.6521946,27.6050129 31.5663282,26.1899262 32.7327792,26.0138284 C33.6980895,25.8688314 34.6254798,26.8972594 35.915995,26.8506082 C39.0138909,26.7375526 40.3077034,22.5977832 39.9388082,20.0029673"
            fill="#FFFFFF"
          />
          <path
            id="Fill-31"
            d="M18.5372079,22.8336349 C16.1119296,22.3885123 12.7302873,22.7596628 12.5083803,25.9869094 C12.3721811,27.9648021 13.9174686,29.8351772 15.5900451,30.6510203 C20.7121513,33.1501581 24.6988403,23.9625691 18.5372079,22.8336349"
            fill="#FFFFFF"
          />
          <path
            id="Fill-33"
            d="M28.3362306,19.157604 C27.6856351,18.4518413 26.6326311,17.918164 25.6605301,18.1654572 C25.9719227,17.9508815 26.2293799,17.5642204 26.5251817,17.3262751 C23.3686979,15.0403008 21.3853086,20.8049502 23.1786599,23.0743534 C25.8964974,26.5139375 31.2158743,22.3078297 28.3362306,19.157604"
            fill="#FFFFFF"
          />
        </g>
      </g>
    </g>
  </g>
</svg>

<svg>
  <g id="Clothing/Graphic-Shirt" transform="translate(0 170)">
    <defs>
      <path id="react-path-1153" d="M165.624 29.268C202.76 32.138 232 63.18 232 101.052V110H32v-8.948c0-38.217 29.775-69.48 67.393-71.855A14.107 14.107 0 0 0 99 32.5C99 44.374 113.998 54 132.5 54c18.502 0 33.5-9.626 33.5-21.5 0-1.098-.128-2.178-.376-3.232Z"/>
    </defs>
    <mask id="react-mask-1154" fill="#fff">
      <use href="#react-path-1153"/>
    </mask>
    <use id="Clothes" fill="#E6E6E6" fill-rule="evenodd" href="#react-path-1153"/>
    <g id="Color/Palette/" fill="var(--avataaar-shirt-color)" fill-rule="evenodd" mask="url(#react-mask-1154)">
      <path id="Color" d="M0 0h264v110H0z"/>
    </g>
    <g id="Clothing/Graphic/Pizza" fill-rule="evenodd" stroke-width="1">
      <g id="Group-2" fill="#FFF" transform="translate(112 59)">
        <path id="Fill-29" d="M30.933 24.391c-4.082 1.38-8.55 3.324-10.905 7.074-1.847 2.942-1.971-.455-4.55.593-2.508 1.019-1.822 5.223-2.733 7.301-.708-1.191-1.043-2.516-1.935-3.604a6.605 6.605 0 0 0 1.814-1.724c.156-.32-4.792.348-5.076.43-1.411.401-2.74.77-4.088 1.429a78.97 78.97 0 0 0 1.965-2.989c.207-.68.576-.682 1.108-.006.748.036 1.178.357 1.962.177 2.915-.667 3.843-6.223.25-5.987a93.37 93.37 0 0 0 4.253-8.802c.502 4.291 6.08 2.813 7.719.525 2.14-2.989-.604-8.662-4.484-8.112.581-1.375 1.17-2.762 1.65-4.178 1.092 1.61 3.001 2.39 4.538 3.457a18.2 18.2 0 0 1 4.163 4.006c2.386 3.14 3.793 7.007 6.215 10.052a6.982 6.982 0 0 0-1.866.358m9.006-4.388c-.632-5.757-5.15-11.601-9.44-15.176-2.55-2.125-10.24-7.385-13.306-3.34 2.472 1.071 5.2 1.33 7.65 2.489 3.32 1.572 5.922 4.16 8.168 7.055 3.137 4.045 7.97 12.283.474 14.386.518-.338.819-.709 1.228-1.308-1.007-.233-.6-1.878-.954-2.952-.412-1.25-1.21-2.467-1.884-3.582a56.639 56.639 0 0 0-3.504-5.171c-1.678-2.186-3.686-3.907-5.977-5.396-.907-.589-1.775-1.11-2.817-1.415-1.349-.394-.907.086-1.276-1.146-.232-.773-.024-1.763-.246-2.592-1.973 1.658-2.615 4.055-3.5 6.381-1.02 2.684-2.122 5.335-3.196 7.997-2.635 6.535-6.034 12.395-9.891 18.247-.672 1.02-2.165 2.95-1.09 4.174.96 1.095 2.33.306 3.386-.139 1.436-.604 3.385-2.164 4.935-1.347 1.998 1.054 1.054 4.984 4.214 4.827 3.114-.154 2.527-5.28 3.527-7.317 2.311 1.685 4.175.64 5.579-1.611 1.626-2.61 3.775-3.657 6.513-4.938 1.12-.524 3.034-1.94 4.2-2.115.966-.145 1.893.883 3.184.837 3.098-.113 4.392-4.253 4.023-6.848"/>
        <path id="Fill-31" d="M18.537 22.834c-2.425-.445-5.807-.074-6.029 3.153-.136 1.978 1.41 3.848 3.082 4.664 5.122 2.5 9.109-6.688 2.947-7.817"/>
        <path id="Fill-33" d="M28.336 19.158c-.65-.706-1.703-1.24-2.675-.993.31-.214.568-.6.864-.839-3.156-2.286-5.14 3.479-3.346 5.748 2.717 3.44 8.037-.766 5.157-3.916"/>
      </g>
    </g>
  </g>
</svg>
